X: 1
T: Phroinsias'
M: 3/4
L: 1/8
R: mazurka
K: Gmaj
GA|:&quot;G&quot;B2BAGE|DB, D2B,D|&quot;C&quot;EC E2CE|&quot;G&quot;DB, D2GA|
B2BAGE|DB, D2B,D|&quot;C&quot;E2&quot;D&quot;F2D2|&quot;G&quot;G4GA:|
|:&quot;G&quot;B2B2dB|&quot;C&quot;cB c2AF|&quot;D&quot;A2A2dc|&quot;G&quot;BA B2GA|
B2B2dB|&quot;C&quot;cB c2DF|&quot;D&quot;A2AcBA|[1&quot;G&quot;G4GA:|[2&quot;G&quot;G6|]
